X: 22294
T: La Reel De La Baie Sainte-Marie
R: reel
M: 4/4
K: Amajor
|:(A,2C)E A,ECE|A,EC(E (3DED) FA|(DEG)B EBG(B|cB)GB (3AAA u(CD|
.A,2)CE A,ECE|A,EC(E (3DED) FA|(DEG)B EBG(B|1 cB)G(B .A2) (3A,A,A,:|2 cB)G(B AG) (3AAA||
|:(uAc)eg {g}a2(gf|(3efe) ce Aec(e|Ac)e(g a2)gf|(3efe (ce) BEG(B|
Ac)eg {g}a2(gf|(3efe) ce AecA|BEGB BEG(B|1 cB)GB AG (3AAA:|2 cB)G(B .A2) (3A,A,A,||

